X:388
T:Sham Doctor,The. (p)1698.PLFD.388
M:3/2
L:1/4
Q:1/2=90
S:Playford, Dancing Master,9th Ed,extra pages(9C),1698.
O:England
H:1698
Z:Chris Partington
K:Bb
|: bf2gfe/d/ | e>f g/f/e/d/cB | bf2gfe/d/ | e>f g/f/e/d/c2 :|
|: BF2Be2 | cA2cf2 | "_see Barlow"g>a g/a/bed | c3BB2 :|
